X: 1
T:The Flame In The Fiddle  "CYMRU"
M:6/8
L:1/8
Q:80
C:R Mathieson
S:Jig
K:HP
|: {g}ce{A}e{gef}edc|
{g}B{d}G{e}G{g}dcB|
{g}Ae{G}e{gef}edc|  !
{g}Bcd{gef}e3| |
{g}ea{g}age{A}e|
{g}edc{g}B{d}G{e}G|  !
{g}GBd{g}edc|
{g}B{d}A{e}A{AGAG}A2d:| |:
{g}ea{g}a{fg}g2d|  !
{gef}e2c{g}Bcd|
{g}ea{g}aged|
{g}Bcd{gef}e2d| |  !
{g}ea{g}a{fg}g2d|
{gef}e2c{g}Bcd|
{g}edc{g}Bcd|  !
{g}dA{GAG}A{g}A2d:| |:
{g}eA{GAG}AABc|
{g}B{g}G{g}G{g}GBd|  !
{g}eA{GAG}A{g}ABc|
{g}Bcd{gef}e2d| |
{g}eA{GAG}AABc|  !
{g}B{g}G{g}G{g}GBd|
{g}edc{g}Bcd|
{g}eA{GAG}A{g}A2d:| |:  !
{g}ea{g}agdc|
{g}eA{GAG}A{g}eA{GAG}A|
{g}ea{g}agec|  !
{g}Bcd{g}Bcd| |
{g}ea{g}agdc|
{g}eA{GAG}A{g}eA{GAG}A|  !
{g}edc{g}Bcd|
{g}eA{GAG}A{g}A2d:|
